!!!OTL: Die dienende Schwester.
!!!OTL-incipit: Es wohnt ein Markgraf an dem Rhein,
!!!ARE: Europa, Mitteleuropa, Deutschland / UdSSR, Ostpreussen
!!!YOR: 4, S. 118
!!    ????
!!!SCT: Q0075x
!!!TXL: @@DE
!!!YEM: Copyright 1995, estate of Helmut Schaffrath.
**kern	**text
*ICvox	*
*M3/4	*
*k[b-]	*
*F:	*
!LO:TX:a:t=45 Oſtpreußen	!
{8a	Es
8a	wohnt
8a	ein
=1	=1
4.a	Mark-
8e	-graf
8g	an
8g	dem
=2	=2
4.g}	Rhein,
{8g	der
8g	hat
8g	drei
=3	=3
4.g	ſchö-
8d	-ne
8f	Töchter-
8f	.
=4	=4
4.f}	-lein,
{8a	es
8a	wohnt'
8a	ein
=5	=5
4.dd	Mark-
8cc	-graf
8b-	an
8a	dem
=6	=6
4.cc}	Rhein,
{8b-	der
8a	hat
8g	drei
=7	=7
4.cc	ſchö-
8b-	-ne
8a	Töchter-
8g	.
=8	=8
4.f}	-lein.
==	==
!!!AGN: Ballade, Adelige als Dienstmagd, Tod; Kinder - Spiel, Tanz
!!!ONB: ESAC (Essen Associative Code) Database: BALLADE
!!!AMT: simple triple
!!!AIN: vox
!!!EED: Helmut Schaffrath
!!!EEV: 1.0
!!!source: Deutsche Volkslieder mit ihren Melodien. Herausgegeben vom Deutschen Volksliedarchiv. Vierter Band. Berlin 1959.
!!!page: 118
!!!ENC: Anna Maria Matuszewska
!!!EEV: 2025/02/27
*-	*-
